X:0
T:Scotch Polka
T:Tinners' Rabbits
M:4/4
L:1/8
K:G
%%transpose +2
Bc |: d2G2G2 AB | c2 E2 E2 G2 | FGAB c2 A2 | e2d2 dcBc |
d2G2G2AB | c2 E2E2 G2 | FGAB c2 A2 | [1 A2G2G2 Bc :| [2 A2G2G2 z2 ||
|: G2 Bd g3 f | f2 e2e2 AB | c2 Ac f3 e | e2d2 dcBA |
G2 Bd g3 f | f2 e2e3 e | f2 a2 e2 f2 |  g4 g4 :|